Lila_HD/apps/scalable/qlcplus-fixtureeditor.svg

<?xml version="1.0" encoding="UTF-8" standalone="no"?>
<svg
   xmlns:dc="http://purl.org/dc/elements/1.1/"
   xmlns:cc="http://creativecommons.org/ns#"
   xmlns:rdf="http://www.w3.org/1999/02/22-rdf-syntax-ns#"
   xmlns:svg="http://www.w3.org/2000/svg"
   xmlns="http://www.w3.org/2000/svg"
   xmlns:xlink="http://www.w3.org/1999/xlink"
   xmlns:sodipodi="http://sodipodi.sourceforge.net/DTD/sodipodi-0.dtd"
   xmlns:inkscape="http://www.inkscape.org/namespaces/inkscape"
   viewBox="0 0 48 48"
   version="1.1"
   id="svg53"
   sodipodi:docname="qlcplus-fixtureeditor.svg"
   inkscape:version="0.92.2 2405546, 2018-03-11">
  <metadata
     id="metadata57">
    <rdf:RDF>
      <cc:Work
         rdf:about="">
        <dc:format>image/svg+xml</dc:format>
        <dc:type
           rdf:resource="http://purl.org/dc/dcmitype/StillImage" />
      </cc:Work>
    </rdf:RDF>
  </metadata>
  <sodipodi:namedview
     pagecolor="#ffffff"
     bordercolor="#666666"
     borderopacity="1"
     objecttolerance="10"
     gridtolerance="10"
     guidetolerance="10"
     inkscape:pageopacity="0"
     inkscape:pageshadow="2"
     inkscape:window-width="1920"
     inkscape:window-height="1025"
     id="namedview55"
     showgrid="false"
     inkscape:zoom="4.9166667"
     inkscape:cx="24"
     inkscape:cy="22.372881"
     inkscape:window-x="0"
     inkscape:window-y="25"
     inkscape:window-maximized="1"
     inkscape:current-layer="svg53" />
  <defs
     id="defs7">
    <linearGradient
       id="linearGradient3764"
       x1="1"
       x2="47"
       gradientUnits="userSpaceOnUse"
       gradientTransform="rotate(-90,23.999998,24)">
      <stop
         style="stop-color:#3d3d3d;stop-opacity:1"
         id="stop2" />
      <stop
         offset="1"
         style="stop-color:#474747;stop-opacity:1"
         id="stop4" />
    </linearGradient>
    <linearGradient
       y2="47.000011"
       x2="90"
       y1="47.000011"
       x1="6"
       gradientTransform="matrix(0.54780504,0,0,0.54780494,-2.2946436,-1.746837)"
       gradientUnits="userSpaceOnUse"
       id="linearGradient4071"
       xlink:href="#linearGradient6139-0"
       inkscape:collect="always" />
    <linearGradient
       id="linearGradient6139-0">
      <stop
         style="stop-color:#b2babc;stop-opacity:1"
         offset="0"
         id="stop6141-2" />
      <stop
         id="stop6151-0"
         offset="0.25"
         style="stop-color:#eceff3;stop-opacity:1" />
      <stop
         id="stop6147-1"
         offset="0.5"
         style="stop-color:#96a1a4;stop-opacity:1" />
      <stop
         style="stop-color:#e5eaee;stop-opacity:1"
         offset="0.75"
         id="stop6149-4" />
      <stop
         style="stop-color:#b2b9bc;stop-opacity:1"
         offset="1"
         id="stop6143-4" />
    </linearGradient>
    <linearGradient
       gradientUnits="userSpaceOnUse"
       y2="88.171875"
       x2="94.5"
       y1="88.171875"
       x1="1.5"
       id="linearGradient4129"
       xlink:href="#linearGradient3832-0-6-1-1"
       inkscape:collect="always"
       gradientTransform="matrix(0.49479166,0,0,0.49479165,0.2499999,0.25)" />
    <linearGradient
       id="linearGradient3832-0-6-1-1">
      <stop
         id="stop3834-6-3-7-1"
         offset="0"
         style="stop-color:#000000;stop-opacity:1;" />
      <stop
         style="stop-color:#000000;stop-opacity:0.58823532;"
         offset="0.1"
         id="stop3872-2-4" />
      <stop
         id="stop3844-6-2-7-6"
         offset="0.89999998"
         style="stop-color:#000000;stop-opacity:0.58823532;" />
      <stop
         id="stop3836-5-0-2-9"
         offset="1"
         style="stop-color:#000000;stop-opacity:1;" />
    </linearGradient>
    <radialGradient
       r="43.199203"
       fy="44.892841"
       fx="13.948145"
       cy="44.892841"
       cx="13.948145"
       gradientTransform="matrix(0.48248808,0,0,0.02433916,17.022791,39.915813)"
       gradientUnits="userSpaceOnUse"
       id="radialGradient7462"
       xlink:href="#linearGradient3737"
       inkscape:collect="always" />
    <linearGradient
       id="linearGradient3737">
      <stop
         id="stop3739"
         style="stop-color:#ffffff;stop-opacity:1"
         offset="0" />
      <stop
         id="stop3741"
         style="stop-color:#ffffff;stop-opacity:0"
         offset="1" />
    </linearGradient>
    <radialGradient
       r="43.199203"
       fy="44.892841"
       fx="13.948145"
       cy="44.892841"
       cx="13.948145"
       gradientTransform="matrix(0.43953661,0,0,0.02433916,15.857951,-44.864526)"
       gradientUnits="userSpaceOnUse"
       id="radialGradient7464"
       xlink:href="#linearGradient3737"
       inkscape:collect="always" />
    <linearGradient
       y2="14.514202"
       x2="50.527882"
       y1="-28.64156"
       x1="2.7713892"
       gradientUnits="userSpaceOnUse"
       id="linearGradient4767"
       xlink:href="#linearGradient3737"
       inkscape:collect="always" />
    <clipPath
       clipPathUnits="userSpaceOnUse"
       id="clipPath4156-4-1">
      <path
         style="opacity:0.6;fill:#ffffff;fill-opacity:1;stroke:none"
         d="m 27.046336,-55.695463 -14.21366,13.321486 h 0.06127 l 15.653407,21.770763 10.231384,-10.546177 C 38.561832,-32.30156 27.468089,-54.819245 27.046336,-55.695463 Z M 9.6468554,-39.382809 -5.2407289,-25.32124 15.987863,-7.8059573 26.372412,-18.382966 Z m 31.4906096,12.951445 -9.741259,9.713584 8.944804,12.4580526 7.780753,-7.5550056 z m -49.8397109,4.378822 -13.7541661,12.9822847 26.2830181,13.84571 0.06127,-0.0617 -0.122531,-0.0617 L 13.598503,-5.4007374 -8.7022409,-22.052595 Z m 38.0154159,7.400825 -9.802525,9.7752596 11.579232,9.5594001 7.62759,-7.40083 -8.669108,-11.0087257 z m 20.187073,5.6739697 -7.382526,7.2158 6.187844,8.54179 5.820249,-6.13651996 z m -32.195166,6.32154 -9.5574606,9.49772 13.6622686,7.1849703 7.933918,-7.6783603 z m 23.311629,2.37443004 -7.10683,6.93826996 8.362778,6.9074403 5.360756,-5.6739699 -0.06127,-0.0925 -0.0919,0.12335 -6.463539,-8.20258036 z m -8.730374,8.54178036 -7.505057,7.3391599 10.353916,5.45811 c 1.397496,-1.32103 5.67514,-6.12292 5.850882,-6.32154 z"
         id="path4158-0-8"
         inkscape:connector-curvature="0" />
    </clipPath>
  </defs>
  <path
     inkscape:connector-curvature="0"
     id="path3288"
     d="M 44.357141,0.25 H 3.6428536 C 1.7632152,0.25 0.25000011,1.763214 0.25000011,3.6428555 V 44.357144 c 0,1.879643 1.51321509,3.392856 3.39285349,3.392856 H 44.357141 C 46.236785,47.75 47.75,46.236787 47.75,44.357144 V 3.6428555 C 47.75,1.763214 46.236785,0.25 44.357141,0.25 Z"
     style="display:inline;opacity:0.15;fill:#000000;fill-opacity:1;fill-rule:nonzero;stroke:none;stroke-width:0.49479169" />
  <path
     style="display:inline;opacity:0.15;fill:#000000;fill-opacity:1;fill-rule:nonzero;stroke:none;stroke-width:0.49479169"
     d="M 44.039063,0.62109375 H 3.9609331 c -1.8502694,0 -3.33984015,1.48956975 -3.33984015,3.33984225 v 40.078126 c 0,1.850274 1.48957075,3.339843 3.33984015,3.339843 H 44.039063 c 1.850272,0 3.339842,-1.489569 3.339842,-3.339843 V 3.960936 c 0,-1.8502725 -1.48957,-3.33984225 -3.339842,-3.33984225 z"
     id="path4085"
     inkscape:connector-curvature="0" />
  <path
     inkscape:connector-curvature="0"
     id="rect4251-1"
     d="M 43.720978,0.9921875 H 4.2790171 c -1.8209039,0 -3.28683021,1.4659255 -3.28683021,3.2868294 V 43.720983 c 0,1.820906 1.46592631,3.286829 3.28683021,3.286829 H 43.720978 c 1.820906,0 3.286832,-1.465924 3.286832,-3.286829 V 4.279017 c 0,-1.820904 -1.465926,-3.2868295 -3.286832,-3.2868295 z"
     style="display:inline;fill:url(#linearGradient4071);fill-opacity:1;fill-rule:nonzero;stroke:none;stroke-width:0.49479169" />
  <path
     sodipodi:nodetypes="sscccsccscccsss"
     inkscape:connector-curvature="0"
     id="path3400-6"
     d="m 5.8369006,3.4103046 c -1.4271971,0 -2.5601792,1.162666 -2.5601792,2.6272532 v 10.8866772 3.678153 20.279105 c 0.5482161,0.855847 1.4833321,1.428568 2.5601792,1.428568 h 2.0481439 32.7703045 2.048144 c 1.076844,0 2.011961,-0.572721 2.560178,-1.428568 V 20.602388 16.924235 6.0375578 c 0,-1.4645872 -1.132983,-2.6272532 -2.560178,-2.6272532 z"
     style="display:inline;opacity:0.9;fill:#3f3f3f;fill-opacity:1;fill-rule:nonzero;stroke:none;stroke-width:0.51869994" />
  <path
     style="color:#000000;font-style:normal;font-variant:normal;font-weight:normal;font-stretch:normal;font-size:medium;line-height:normal;font-family:Sans;-inkscape-font-specification:Sans;text-indent:0;text-align:start;text-decoration:none;text-decoration-line:none;letter-spacing:normal;word-spacing:normal;text-transform:none;writing-mode:lr-tb;direction:ltr;baseline-shift:baseline;text-anchor:start;display:inline;overflow:visible;visibility:visible;fill:#1f2224;fill-opacity:1;stroke:none;stroke-width:1.17537761;marker:none;enable-background:accumulate"
     d="m 5.1113671,2.590098 c -1.5420785,0 -2.8044619,1.2565285 -2.8044619,2.7935955 V 39.661871 c 0,1.537067 1.2623834,2.793592 2.8044619,2.793592 H 43.107301 c 1.54208,0 2.804464,-1.256525 2.804464,-2.793592 V 5.3836935 c 0,-1.5370666 -1.262384,-2.7935956 -2.804464,-2.7935956 z m 0,1.147639 H 43.107301 c 0.934219,0 1.658556,0.7323385 1.658556,1.6459565 V 39.661871 c 0,0.913617 -0.724337,1.645952 -1.658556,1.645952 H 5.1113671 c -0.934216,0 -1.658553,-0.732335 -1.658553,-1.645952 V 5.3836935 c 0,-0.913618 0.724337,-1.6459566 1.658553,-1.6459565 z"
     id="path4989"
     inkscape:connector-curvature="0" />
  <path
     id="path4118"
     d="m 0.99218644,40.745605 v 2.96875 c 0,1.820906 1.47255276,3.293457 3.29345666,3.293457 H 43.714353 c 1.820906,0 3.293462,-1.472551 3.293462,-3.293457 v -2.96875 c 0,1.820906 -1.472556,3.293457 -3.293462,3.293457 H 4.2856431 c -1.8209039,0 -3.29345666,-1.472551 -3.29345666,-3.293457 z"
     style="display:inline;opacity:0.65818182;fill:url(#linearGradient4129);fill-opacity:1;fill-rule:nonzero;stroke:none;stroke-width:0.49479169"
     inkscape:connector-curvature="0" />
  <rect
     ry="2.102864"
     rx="0"
     y="39.957039"
     x="2.9095039"
     height="2.102864"
     width="41.686199"
     id="rect4131"
     style="opacity:0.55;fill:url(#radialGradient7462);fill-opacity:1;stroke:none;stroke-width:0.49479169" />
  <rect
     transform="rotate(90)"
     style="opacity:0.669;fill:url(#radialGradient7464);fill-opacity:1;stroke:none;stroke-width:0.49479169"
     id="rect4141"
     width="37.975258"
     height="2.1028652"
     x="3.0010393"
     y="-44.823315"
     rx="0"
     ry="2.1028652" />
  <g
     transform="matrix(1,0,0,1.0645682,97.736288,-3.3120378)"
     id="g969">
    <g
       id="g29"
       style="opacity:0.1;fill:#000000;fill-opacity:1"
       transform="matrix(3.543307,0,0,3.7204724,-97.237288,0.98050926)">
      <path
         inkscape:connector-curvature="0"
         id="path27"
         style="fill-rule:nonzero;stroke:none"
         d="m 25,12 c -1.112,0 -2.212,0.195 -3.281,0.563 -1.073,0.367 -2.028,0.863 -2.875,1.5 -0.851,0.64 -1.54,1.441 -2.063,2.406 -0.519,0.965 -0.781,2.01 -0.781,3.125 0,1.75 0.602,3.254 1.813,4.531 0.528,0.551 0.965,1.039 1.313,1.469 0.344,0.425 0.679,0.977 1.031,1.625 0.346,0.641 0.539,1.227 0.594,1.781 0.017,0.001 0.034,0.017 0.051,0.027 h -0.037 c -0.551,0.317 -0.826,0.782 -0.826,1.391 0,0.418 0.143,0.777 0.439,1.082 -0.293,0.305 -0.439,0.664 -0.439,1.082 0,0.59 0.264,1.047 0.791,1.371 -0.157,0.262 -0.227,0.527 -0.227,0.797 0,0.519 0.184,0.918 0.555,1.203 0.367,0.281 0.821,0.422 1.363,0.422 0.231,0.496 0.58,0.891 1.053,1.184 0.464,0.293 0.973,0.441 1.527,0.441 0.55,0 1.053,-0.148 1.525,-0.441 0.473,-0.293 0.825,-0.688 1.059,-1.184 0.539,0 0.987,-0.141 1.354,-0.422 0.371,-0.285 0.559,-0.683 0.559,-1.203 0,-0.27 -0.077,-0.535 -0.229,-0.797 0.527,-0.324 0.787,-0.781 0.787,-1.371 0,-0.418 -0.145,-0.777 -0.438,-1.082 0.293,-0.305 0.438,-0.664 0.438,-1.082 0,-0.61 -0.276,-1.075 -0.822,-1.391 H 29.183 C 29.195,29.026 29.209,29.01 29.22,29 c 0.051,-0.554 0.276,-1.141 0.625,-1.781 0.352,-0.648 0.683,-1.199 1.031,-1.625 0.348,-0.43 0.786,-0.918 1.313,-1.469 1.207,-1.277 1.813,-2.781 1.813,-4.531 0,-1.121 -0.262,-2.16 -0.781,-3.125 C 32.697,15.504 32.01,14.704 31.158,14.063 30.311,13.426 29.356,12.93 28.283,12.563 27.214,12.196 26.114,12 25.002,12 Z"
         transform="matrix(0.28222223,0,0,0.28222223,-0.28222222,-0.28222271)" />
    </g>
    <g
       transform="matrix(1,0,0,1.05,-98.237288,-0.06949245)"
       id="g51">
      <g
         id="g41"
         transform="scale(3.543307)">
        <path
           inkscape:connector-curvature="0"
           id="path31"
           style="fill:#efdf81;fill-opacity:1;fill-rule:nonzero;stroke:none"
           transform="scale(0.28222223)"
           d="m 24,11 c -1.112,0 -2.212,0.194 -3.281,0.563 -1.073,0.367 -2.028,0.863 -2.875,1.5 -0.851,0.64 -1.54,1.441 -2.063,2.406 -0.519,0.965 -0.781,2.01 -0.781,3.125 0,1.75 0.601,3.254 1.813,4.531 0.528,0.551 0.966,1.039 1.314,1.469 0.344,0.425 0.677,0.977 1.029,1.625 0.346,0.641 0.541,1.227 0.596,1.781 l 2.25,2 H 26 l 2.219,-2 c 0.051,-0.554 0.276,-1.141 0.625,-1.781 0.352,-0.648 0.683,-1.199 1.031,-1.625 0.348,-0.43 0.785,-0.918 1.313,-1.469 1.207,-1.277 1.814,-2.781 1.814,-4.531 0,-1.121 -0.262,-2.16 -0.781,-3.125 C 31.697,14.504 31.009,13.704 30.157,13.063 29.31,12.426 28.355,11.93 27.282,11.563 26.213,11.196 25.115,11 24.003,11" />
        <path
           inkscape:connector-curvature="0"
           id="path33"
           style="fill:#c6caca;fill-opacity:1;fill-rule:nonzero;stroke:none"
           d="M 7.968,7.91 C 8.122,7.999 8.2,8.13 8.2,8.303 8.2,8.421 8.159,8.522 8.076,8.608 8.159,8.694 8.2,8.795 8.2,8.913 8.2,9.08 8.126,9.208 7.977,9.3 8.02,9.374 8.042,9.449 8.042,9.525 8.042,9.672 7.989,9.784 7.884,9.865 7.78,9.944 7.654,9.984 7.502,9.984 7.436,10.124 7.337,10.235 7.203,10.318 7.07,10.401 6.927,10.442 6.772,10.442 6.615,10.442 6.472,10.4 6.341,10.318 6.208,10.235 6.109,10.124 6.043,9.984 5.89,9.984 5.762,9.944 5.659,9.865 5.554,9.785 5.502,9.672 5.502,9.525 5.502,9.449 5.522,9.374 5.566,9.3 5.417,9.209 5.342,9.08 5.342,8.913 5.342,8.795 5.384,8.694 5.466,8.608 5.382,8.522 5.342,8.421 5.342,8.303 5.342,8.131 5.42,8 5.576,7.91" />
        <path
           inkscape:connector-curvature="0"
           id="path35"
           style="fill:#dde5e5;fill-opacity:1;stroke:none"
           d="M 5.556,9.313 C 5.519,9.381 5.503,9.455 5.503,9.525 c 0,0.025 0.006,0.048 0.009,0.071 H 8.035 C 8.035,9.573 8.044,9.55 8.044,9.525 8.044,9.455 8.027,9.382 7.991,9.313 H 5.557 Z" />
        <path
           inkscape:connector-curvature="0"
           id="path37"
           style="fill:#dde5e5;fill-opacity:1;stroke:none"
           d="M 5.379,8.749 C 5.358,8.8 5.344,8.858 5.344,8.917 c 0,0.042 0.008,0.078 0.018,0.115 H 8.184 C 8.193,8.995 8.202,8.959 8.202,8.917 8.202,8.858 8.187,8.8 8.167,8.749 H 5.38 Z" />
        <path
           inkscape:connector-curvature="0"
           id="path39"
           style="fill:#dde5e5;fill-opacity:1;stroke:none"
           d="M 5.362,8.184 C 5.361,8.222 5.344,8.256 5.344,8.299 c 0,0.059 0.006,0.117 0.027,0.168 H 8.167 C 8.188,8.416 8.202,8.358 8.202,8.299 8.202,8.256 8.194,8.222 8.184,8.184 Z" />
      </g>
      <g
         id="g49">
        <path
           inkscape:connector-curvature="0"
           id="path43"
           style="opacity:1;fill:#000000;fill-opacity:0.09800002;stroke:none"
           d="m 24,15 v 4 h -4 v 2 h 4 v 4 h 2 v -4 h 4 v -2 h -4 v -4 z" />
        <g
           id="g47">
          <path
             inkscape:connector-curvature="0"
             id="path45"
             style="opacity:1;fill:#d5584f;fill-opacity:1;stroke:none"
             d="m 23,14 v 4 h -4 v 2 h 4 v 4 h 2 v -4 h 4 v -2 h -4 v -4 z" />
        </g>
      </g>
    </g>
  </g>
  <rect
     clip-path="url(#clipPath4156-4-1)"
     ry="3.9569881"
     rx="3.9569874"
     y="-30"
     x="2"
     height="69.024437"
     width="75.965775"
     id="rect4146"
     style="opacity:0.65;fill:url(#linearGradient4767);fill-opacity:1;stroke:none"
     transform="matrix(0.52905359,0,0,0.51838475,2.3752412,19.289084)" />
</svg>

<?xml version="1.0" encoding="UTF-8"?>
<svg version="1.1" viewBox="0 0 48 48" xmlns="http://www.w3.org/2000/svg" xmlns:cc="http://creativecommons.org/ns#" xmlns:dc="http://purl.org/dc/elements/1.1/" xmlns:rdf="http://www.w3.org/1999/02/22-rdf-syntax-ns#" xmlns:xlink="http://www.w3.org/1999/xlink">
<metadata>
<rdf:RDF>
<cc:Work rdf:about="">
<dc:format>image/svg+xml</dc:format>
<dc:type rdf:resource="http://purl.org/dc/dcmitype/StillImage"/>
</cc:Work>
</rdf:RDF>
</metadata>
<defs>
<linearGradient id="linearGradient4071" x1="6" x2="90" y1="47" y2="47" gradientTransform="matrix(.54781 0 0 .5478 -2.2946 -1.7468)" gradientUnits="userSpaceOnUse">
<stop stop-color="#b2babc" offset="0"/>
<stop stop-color="#eceff3" offset=".25"/>
<stop stop-color="#96a1a4" offset=".5"/>
<stop stop-color="#e5eaee" offset=".75"/>
<stop stop-color="#b2b9bc" offset="1"/>
</linearGradient>
<linearGradient id="linearGradient4129" x1="1.5" x2="94.5" y1="88.172" y2="88.172" gradientTransform="matrix(.49479 0 0 .49479 .25 .25)" gradientUnits="userSpaceOnUse">
<stop offset="0"/>
<stop stop-opacity=".58824" offset=".1"/>
<stop stop-opacity=".58824" offset=".9"/>
<stop offset="1"/>
</linearGradient>
<radialGradient id="radialGradient7462" cx="13.948" cy="44.893" r="43.199" gradientTransform="matrix(.48249 0 0 .024339 17.023 39.916)" gradientUnits="userSpaceOnUse" xlink:href="#linearGradient3737"/>
<linearGradient id="linearGradient3737">
<stop stop-color="#fff" offset="0"/>
<stop stop-color="#fff" stop-opacity="0" offset="1"/>
</linearGradient>
<radialGradient id="radialGradient7464" cx="13.948" cy="44.893" r="43.199" gradientTransform="matrix(.43954 0 0 .024339 15.858 -44.865)" gradientUnits="userSpaceOnUse" xlink:href="#linearGradient3737"/>
<linearGradient id="linearGradient4767" x1="2.7714" x2="50.528" y1="-28.642" y2="14.514" gradientUnits="userSpaceOnUse" xlink:href="#linearGradient3737"/>
<clipPath id="clipPath4156-4-1">
<path d="m27.046-55.695-14.214 13.321h0.06127l15.653 21.771 10.231-10.546c-0.2169-1.1522-11.311-23.67-11.732-24.546zm-17.399 16.313-14.888 14.062 21.229 17.515 10.385-10.577zm31.491 12.951-9.7413 9.7136 8.9448 12.458 7.7808-7.555zm-49.84 4.3788-13.754 12.982 26.283 13.846 0.06127-0.0617-0.12253-0.0617 9.8332-10.053-22.301-16.652zm38.015 7.4008-9.8025 9.7753 11.579 9.5594 7.6276-7.4008-8.6691-11.009zm20.187 5.674-7.3825 7.2158 6.1878 8.5418 5.8202-6.1365zm-32.195 6.3215-9.5575 9.4977 13.662 7.185 7.9339-7.6784zm23.312 2.3744-7.1068 6.9383 8.3628 6.9074 5.3608-5.674-0.06127-0.0925-0.0919 0.12335-6.4635-8.2026zm-8.7304 8.5418-7.5051 7.3392 10.354 5.4581c1.3975-1.321 5.6751-6.1229 5.8509-6.3215z" fill="#fff" opacity=".6"/>
</clipPath>
</defs>
<path d="m44.357 0.25h-40.714c-1.8796 0-3.3929 1.5132-3.3929 3.3929v40.714c0 1.8796 1.5132 3.3929 3.3929 3.3929h40.714c1.8796 0 3.3929-1.5132 3.3929-3.3929v-40.714c0-1.8796-1.5132-3.3929-3.3929-3.3929z" opacity=".15"/>
<path d="m44.039 0.62109h-40.078c-1.8503 0-3.3398 1.4896-3.3398 3.3398v40.078c0 1.8503 1.4896 3.3398 3.3398 3.3398h40.078c1.8503 0 3.3398-1.4896 3.3398-3.3398v-40.078c0-1.8503-1.4896-3.3398-3.3398-3.3398z" opacity=".15"/>
<path d="m43.721 0.99219h-39.442c-1.8209 0-3.2868 1.4659-3.2868 3.2868v39.442c0 1.8209 1.4659 3.2868 3.2868 3.2868h39.442c1.8209 0 3.2868-1.4659 3.2868-3.2868v-39.442c0-1.8209-1.4659-3.2868-3.2868-3.2868z" fill="url(#linearGradient4071)"/>
<path d="m5.8369 3.4103c-1.4272 0-2.5602 1.1627-2.5602 2.6273v34.844c0.54822 0.85585 1.4833 1.4286 2.5602 1.4286h36.867c1.0768 0 2.012-0.57272 2.5602-1.4286v-34.844c0-1.4646-1.133-2.6273-2.5602-2.6273z" fill="#3f3f3f" opacity=".9"/>
<path d="m5.1114 2.5901c-1.5421 0-2.8045 1.2565-2.8045 2.7936v34.278c0 1.5371 1.2624 2.7936 2.8045 2.7936h37.996c1.5421 0 2.8045-1.2565 2.8045-2.7936v-34.278c0-1.5371-1.2624-2.7936-2.8045-2.7936zm0 1.1476h37.996c0.93422 0 1.6586 0.73234 1.6586 1.646v34.278c0 0.91362-0.72434 1.646-1.6586 1.646h-37.996c-0.93422 0-1.6586-0.73234-1.6586-1.646v-34.278c0-0.91362 0.72434-1.646 1.6586-1.646z" color="#000000" fill="#1f2224" style="text-decoration-line:none;text-indent:0;text-transform:none"/>
<path d="m0.99219 40.746v2.9688c0 1.8209 1.4726 3.2935 3.2935 3.2935h39.429c1.8209 0 3.2935-1.4726 3.2935-3.2935v-2.9688c0 1.8209-1.4726 3.2935-3.2935 3.2935h-39.429c-1.8209 0-3.2935-1.4726-3.2935-3.2935z" fill="url(#linearGradient4129)" opacity=".65818"/>
<rect x="2.9095" y="39.957" width="41.686" height="2.1029" rx="0" ry="2.1029" fill="url(#radialGradient7462)" opacity=".55"/>
<rect transform="rotate(90)" x="3.001" y="-44.823" width="37.975" height="2.1029" rx="0" ry="2.1029" fill="url(#radialGradient7464)" opacity=".669"/>
<g transform="matrix(1 0 0 1.0646 97.736 -3.312)">
<g transform="matrix(3.5433 0 0 3.7205 -97.237 .98051)" opacity=".1">
<path transform="matrix(.28222 0 0 .28222 -.28222 -.28222)" d="m25 12c-1.112 0-2.212 0.195-3.281 0.563-1.073 0.367-2.028 0.863-2.875 1.5-0.851 0.64-1.54 1.441-2.063 2.406-0.519 0.965-0.781 2.01-0.781 3.125 0 1.75 0.602 3.254 1.813 4.531 0.528 0.551 0.965 1.039 1.313 1.469 0.344 0.425 0.679 0.977 1.031 1.625 0.346 0.641 0.539 1.227 0.594 1.781 0.017 1e-3 0.034 0.017 0.051 0.027h-0.037c-0.551 0.317-0.826 0.782-0.826 1.391 0 0.418 0.143 0.777 0.439 1.082-0.293 0.305-0.439 0.664-0.439 1.082 0 0.59 0.264 1.047 0.791 1.371-0.157 0.262-0.227 0.527-0.227 0.797 0 0.519 0.184 0.918 0.555 1.203 0.367 0.281 0.821 0.422 1.363 0.422 0.231 0.496 0.58 0.891 1.053 1.184 0.464 0.293 0.973 0.441 1.527 0.441 0.55 0 1.053-0.148 1.525-0.441 0.473-0.293 0.825-0.688 1.059-1.184 0.539 0 0.987-0.141 1.354-0.422 0.371-0.285 0.559-0.683 0.559-1.203 0-0.27-0.077-0.535-0.229-0.797 0.527-0.324 0.787-0.781 0.787-1.371 0-0.418-0.145-0.777-0.438-1.082 0.293-0.305 0.438-0.664 0.438-1.082 0-0.61-0.276-1.075-0.822-1.391h-0.051c0.012-1e-3 0.026-0.017 0.037-0.027 0.051-0.554 0.276-1.141 0.625-1.781 0.352-0.648 0.683-1.199 1.031-1.625 0.348-0.43 0.786-0.918 1.313-1.469 1.207-1.277 1.813-2.781 1.813-4.531 0-1.121-0.262-2.16-0.781-3.125-0.524-0.965-1.211-1.765-2.063-2.406-0.847-0.637-1.802-1.133-2.875-1.5-1.069-0.367-2.169-0.563-3.281-0.563z"/>
</g>
<g transform="matrix(1 0 0 1.05 -98.237 -.069492)">
<g transform="scale(3.5433)">
<path transform="scale(.28222)" d="m24 11c-1.112 0-2.212 0.194-3.281 0.563-1.073 0.367-2.028 0.863-2.875 1.5-0.851 0.64-1.54 1.441-2.063 2.406-0.519 0.965-0.781 2.01-0.781 3.125 0 1.75 0.601 3.254 1.813 4.531 0.528 0.551 0.966 1.039 1.314 1.469 0.344 0.425 0.677 0.977 1.029 1.625 0.346 0.641 0.541 1.227 0.596 1.781l2.25 2h3.998l2.219-2c0.051-0.554 0.276-1.141 0.625-1.781 0.352-0.648 0.683-1.199 1.031-1.625 0.348-0.43 0.785-0.918 1.313-1.469 1.207-1.277 1.814-2.781 1.814-4.531 0-1.121-0.262-2.16-0.781-3.125-0.524-0.965-1.212-1.765-2.064-2.406-0.847-0.637-1.802-1.133-2.875-1.5-1.069-0.367-2.167-0.563-3.279-0.563" fill="#efdf81"/>
<path d="m7.968 7.91c0.154 0.089 0.232 0.22 0.232 0.393 0 0.118-0.041 0.219-0.124 0.305 0.083 0.086 0.124 0.187 0.124 0.305 0 0.167-0.074 0.295-0.223 0.387 0.043 0.074 0.065 0.149 0.065 0.225 0 0.147-0.053 0.259-0.158 0.34-0.104 0.079-0.23 0.119-0.382 0.119-0.066 0.14-0.165 0.251-0.299 0.334-0.133 0.083-0.276 0.124-0.431 0.124-0.157 0-0.3-0.042-0.431-0.124-0.133-0.083-0.232-0.194-0.298-0.334-0.153 0-0.281-0.04-0.384-0.119-0.105-0.08-0.157-0.193-0.157-0.34 0-0.076 0.02-0.151 0.064-0.225-0.149-0.091-0.224-0.22-0.224-0.387 0-0.118 0.042-0.219 0.124-0.305-0.084-0.086-0.124-0.187-0.124-0.305 0-0.172 0.078-0.303 0.234-0.393" fill="#c6caca"/>
<path d="m5.556 9.313c-0.037 0.068-0.053 0.142-0.053 0.212 0 0.025 6e-3 0.048 9e-3 0.071h2.523c0-0.023 9e-3 -0.046 9e-3 -0.071 0-0.07-0.017-0.143-0.053-0.212h-2.434z" fill="#dde5e5"/>
<path d="m5.379 8.749c-0.021 0.051-0.035 0.109-0.035 0.168 0 0.042 8e-3 0.078 0.018 0.115h2.822c9e-3 -0.037 0.018-0.073 0.018-0.115 0-0.059-0.015-0.117-0.035-0.168h-2.787z" fill="#dde5e5"/>
<path d="m5.362 8.184c-1e-3 0.038-0.018 0.072-0.018 0.115 0 0.059 6e-3 0.117 0.027 0.168h2.796c0.021-0.051 0.035-0.109 0.035-0.168 0-0.043-8e-3 -0.077-0.018-0.115z" fill="#dde5e5"/>
</g>
<path d="m24 15v4h-4v2h4v4h2v-4h4v-2h-4v-4z" fill-opacity=".098"/>
<path d="m23 14v4h-4v2h4v4h2v-4h4v-2h-4v-4z" fill="#d5584f"/>
</g>
</g>
<rect transform="matrix(.52905 0 0 .51838 2.3752 19.289)" x="2" y="-30" width="75.966" height="69.024" rx="3.957" ry="3.957" clip-path="url(#clipPath4156-4-1)" fill="url(#linearGradient4767)" opacity=".65"/>
</svg>
